assets/img/foods.svg

<?xml version="1.0" encoding="UTF-8"?>
<svg width="44px" height="44px" viewBox="0 0 44 44" version="1.1" xmlns="http://www.w3.org/2000/svg" xmlns:xlink="http://www.w3.org/1999/xlink">
    <title>9FA419BD-A6A9-404E-9BE6-FC5BAA008013</title>
    <g id="Page-1" stroke="none" stroke-width="1" fill="none" fill-rule="evenodd">
        <g id="1-copy-4" transform="translate(-681.000000, -235.000000)" fill="#FFFFFF" fill-rule="nonzero">
            <g id="dish" transform="translate(681.000000, 235.000000)">
                <g>
                    <path d="M31.1578667,14.8294667 L30.6870667,13.2799333 C30.0890333,11.51975 28.177325,10.5776917 26.4171417,11.175725 C25.4269583,11.5121417 24.64935,12.28975 24.3129333,13.2799333 L23.8421333,14.8294667 C23.44595,16.1362667 23.3628083,17.5179583 23.5994,18.8628 C23.8151833,19.9950667 24.5340333,20.9678333 25.553,21.5064667 L25.0257333,33.2933333 C24.95515,33.951225 25.16855,34.6080167 25.6124,35.0988 C26.566925,36.1428833 28.187225,36.2154833 29.2313083,35.2609583 C29.287775,35.20935 29.3418583,35.1552667 29.3934667,35.0988 C29.8274167,34.62195 30.04045,33.9844083 29.9801333,33.3424667 L29.4499333,21.505 C30.467525,20.9660917 31.1851833,19.9939667 31.4006,18.8628 C31.6371917,17.5179583 31.55405,16.1362667 31.1578667,14.8294667 Z M29.9559333,18.6076 C29.7971667,19.42105 29.2174667,20.088475 28.4342667,20.3595333 C28.1369917,20.471275 27.9455,20.761675 27.9598,21.0789333 L28.5171333,33.4583333 C28.5428,33.7011583 28.4626833,33.94325 28.2971333,34.1227333 C27.855575,34.5598917 27.144425,34.5598917 26.7028667,34.1227333 C26.5290667,33.9287667 26.4501417,33.6677 26.4872667,33.4099333 L27.0402,21.0789333 C27.0545,20.761675 26.8630083,20.471275 26.5657333,20.3595333 C25.7825333,20.088475 25.2028333,19.42105 25.0440667,18.6076 C24.8479,17.4911 24.9170167,16.344075 25.2457333,15.2592 L25.7165333,13.7089333 C26.0808167,12.723975 27.1745833,12.2208167 28.1596333,12.5851 C28.6803917,12.7776917 29.090875,13.1882667 29.2834667,13.7089333 L29.7542667,15.2592 C30.0826167,16.3441667 30.1517333,17.4911 29.9559333,18.6076 Z" id="Shape"></path>
                    <path d="M19.8,11 C19.3950167,11 19.0666667,11.32835 19.0666667,11.7333333 L19.0666667,18.0297333 L17.0815333,20.0148667 C16.9346833,20.1611667 16.8565833,20.362925 16.8666667,20.57 L17.5083333,33.4033333 C17.5236417,33.680075 17.423175,33.9507667 17.2311333,34.1506 C16.829725,34.5555833 16.1759583,34.5585167 15.7708833,34.1570167 C15.7686833,34.1549083 15.766575,34.1527083 15.7644667,34.1506 C15.5723333,33.9507667 15.4719583,33.680075 15.4872667,33.4033333 L16.1333333,20.57 C16.1436,20.3630167 16.065775,20.16135 15.9192,20.0148667 L13.9333333,18.0297333 L13.9333333,11.7333333 C13.9333333,11.32835 13.6049833,11 13.2,11 C12.7950167,11 12.4666667,11.32835 12.4666667,11.7333333 L12.4666667,18.3333333 C12.4666667,18.52785 12.5440333,18.7143 12.6815333,18.8518 L14.6512667,20.8222667 L14.0257333,33.3322 C13.9591833,34.698675 15.0129833,35.8604583 16.3794583,35.9270083 C17.7459333,35.9935583 18.9077167,34.9397583 18.9742667,33.5732833 C18.9782083,33.4929833 18.9782083,33.4125917 18.9742667,33.3322917 L18.3487333,20.8223583 L20.3184667,18.8518917 C20.4559667,18.7143917 20.5333333,18.5279417 20.5333333,18.333425 L20.5333333,11.733425 C20.5333333,11.32835 20.2049833,11 19.8,11 Z" id="Path"></path>
                    <path d="M15.4,11 C14.9950167,11 14.6666667,11.32835 14.6666667,11.7333333 L14.6666667,17.6 C14.6666667,18.0049833 14.9950167,18.3333333 15.4,18.3333333 C15.8049833,18.3333333 16.1333333,18.0049833 16.1333333,17.6 L16.1333333,11.7333333 C16.1333333,11.32835 15.8049833,11 15.4,11 Z" id="Path"></path>
                    <path d="M17.6,11 C17.1950167,11 16.8666667,11.32835 16.8666667,11.7333333 L16.8666667,17.6 C16.8666667,18.0049833 17.1950167,18.3333333 17.6,18.3333333 C18.0049833,18.3333333 18.3333333,18.0049833 18.3333333,17.6 L18.3333333,11.7333333 C18.3333333,11.32835 18.0049833,11 17.6,11 Z" id="Path"></path>
                    <path d="M22,0 C9.84976667,0 0,9.84976667 0,22 C0,34.1502333 9.84976667,44 22,44 C34.1502333,44 44,34.1502333 44,22 C43.98625,9.85545 34.14455,0.01375 22,0 Z M22,42.5333333 C10.6597333,42.5333333 1.46666667,33.3402667 1.46666667,22 C1.46666667,10.6597333 10.6597333,1.46666667 22,1.46666667 C33.3402667,1.46666667 42.5333333,10.6597333 42.5333333,22 C42.5204083,33.3348583 33.3348583,42.5204083 22,42.5333333 Z" id="Shape"></path>
                    <path d="M24.3804917,35.7657667 C24.3411667,35.3627083 23.982475,35.0678167 23.579325,35.1071417 C23.5698833,35.1080583 23.5604417,35.1091583 23.551,35.1104417 L23.5539333,35.1097083 C22.5214917,35.2296083 21.4785083,35.2296083 20.4460667,35.1097083 C20.04365,35.0625 19.679275,35.350425 19.6320667,35.7528417 C19.5848583,36.1552583 19.8727833,36.5196333 20.2752,36.5668417 C21.4202083,36.7005833 22.5768583,36.7005833 23.7218667,36.5668417 C24.124925,36.5276083 24.4198167,36.1689167 24.3804917,35.7657667 Z" id="Path"></path>
                    <path d="M33.22,12.5502667 C32.9597583,12.239975 32.4972083,12.1993667 32.1869167,12.4597 C32.1859083,12.460525 32.1849,12.4614417 32.1838,12.4622667 C31.8742417,12.7233333 31.834825,13.1858833 32.0958,13.4955333 C36.5173417,18.7443667 36.1790917,26.5056917 31.3177333,31.35 C31.0308167,31.6359083 31.0299917,32.1003833 31.3159,32.3873 C31.6018083,32.6742167 32.0662833,32.6750417 32.3532,32.3891333 C37.7557583,27.0071083 38.1325083,18.382925 33.22,12.5502667 Z" id="Path"></path>
                    <g id="Group" transform="translate(16.316667, 7.333333)">
                        <path d="M0.7736,2.3640375 C0.7731,2.3640375 0.7726,2.3639375 0.7721,2.3639375 C0.7713,2.3639375 0.7705,2.3640375 0.7696,2.3640375 L0.7736,2.3640375 Z" id="Path"></path>
                        <path d="M9.14246667,0.409933333 C6.27650833,-0.276925 3.27075833,-0.0923083333 0.5104,0.940133333 C0.131266667,1.082675 -0.0604083333,1.505625 0.0821333333,1.88466667 C0.189566667,2.17039167 0.462733333,2.3595 0.767891667,2.359775 C0.855616667,2.35931667 0.942516667,2.343275 1.02446667,2.3122 C3.51028333,1.38260833 6.21701667,1.2166 8.7978,1.83553333 C9.19150833,1.93068333 9.58778333,1.688775 9.68293333,1.29506667 C9.77808333,0.901358333 9.536175,0.505083333 9.14246667,0.409933333 Z" id="Path"></path>
                    </g>
                    <path d="M12.6492667,31.3133333 C10.1771083,28.8453917 8.79156667,25.4932333 8.8,22 C8.79275833,19.2091167 9.67679167,16.4888167 11.3234,14.2354667 C11.566775,13.9117 11.5016,13.4519917 11.1778333,13.2086167 C10.8540667,12.9652417 10.3943583,13.0304167 10.1509833,13.3541833 C10.146675,13.3599583 10.1424583,13.3657333 10.1383333,13.3716 C5.898475,19.2005 6.52235833,27.246175 11.6101333,32.3517333 C11.8968667,32.63865 12.3619833,32.6388333 12.6489,32.3521 C12.9358167,32.0653667 12.936,31.60025 12.6492667,31.3133333 Z" id="Path"></path>
                </g>
            </g>
        </g>
    </g>
</svg>

<?xml version="1.0" encoding="utf-8"?>
<!-- Generator: Adobe Illustrator 24.2.1, SVG Export Plug-In . SVG Version: 6.00 Build 0)  -->
<svg version="1.1" id="Layer_1" xmlns="http://www.w3.org/2000/svg" xmlns:xlink="http://www.w3.org/1999/xlink" x="0px" y="0px"
	 viewBox="0 0 44 44" style="enable-background:new 0 0 44 44;" xml:space="preserve">
<style type="text/css">
	.st0{fill:#D8D8D8;}
</style>
<g id="Page-1">
	<g id="_x31_-copy-4" transform="translate(-681.000000, -235.000000)">
		<g id="dish" transform="translate(681.000000, 235.000000)">
			<g>
				<path id="Shape" class="st0" d="M31.2,14.8l-0.5-1.5c-0.6-1.8-2.5-2.7-4.3-2.1c-1,0.3-1.8,1.1-2.1,2.1l-0.5,1.5
					c-0.4,1.3-0.5,2.7-0.2,4c0.2,1.1,0.9,2.1,2,2.6L25,33.3c-0.1,0.7,0.1,1.3,0.6,1.8c1,1,2.6,1.1,3.6,0.2c0.1-0.1,0.1-0.1,0.2-0.2
					c0.4-0.5,0.6-1.1,0.6-1.8l-0.5-11.8c1-0.5,1.7-1.5,2-2.6C31.6,17.5,31.6,16.1,31.2,14.8z M30,18.6c-0.2,0.8-0.7,1.5-1.5,1.8
					c-0.3,0.1-0.5,0.4-0.5,0.7l0.6,12.4c0,0.2-0.1,0.5-0.2,0.7c-0.4,0.4-1.2,0.4-1.6,0c-0.2-0.2-0.3-0.5-0.2-0.7L27,21.1
					c0-0.3-0.2-0.6-0.5-0.7c-0.8-0.3-1.4-0.9-1.5-1.8c-0.2-1.1-0.1-2.3,0.2-3.3l0.5-1.6c0.4-1,1.5-1.5,2.4-1.1
					c0.5,0.2,0.9,0.6,1.1,1.1l0.5,1.6C30.1,16.3,30.2,17.5,30,18.6z"/>
				<path id="Path" class="st0" d="M19.8,11c-0.4,0-0.7,0.3-0.7,0.7V18l-2,2c-0.1,0.1-0.2,0.3-0.2,0.6l0.6,12.8
					c0,0.3-0.1,0.5-0.3,0.7c-0.4,0.4-1.1,0.4-1.5,0c0,0,0,0,0,0c-0.2-0.2-0.3-0.5-0.3-0.7l0.6-12.8c0-0.2-0.1-0.4-0.2-0.6l-2-2v-6.3
					c0-0.4-0.3-0.7-0.7-0.7s-0.7,0.3-0.7,0.7v6.6c0,0.2,0.1,0.4,0.2,0.5l2,2L14,33.3c-0.1,1.4,1,2.5,2.4,2.6c1.4,0.1,2.5-1,2.6-2.4
					c0-0.1,0-0.2,0-0.2l-0.6-12.5l2-2c0.1-0.1,0.2-0.3,0.2-0.5v-6.6C20.5,11.3,20.2,11,19.8,11z"/>
				<path id="Path_1_" class="st0" d="M15.4,11c-0.4,0-0.7,0.3-0.7,0.7v5.9c0,0.4,0.3,0.7,0.7,0.7c0.4,0,0.7-0.3,0.7-0.7v-5.9
					C16.1,11.3,15.8,11,15.4,11z"/>
				<path id="Path_2_" class="st0" d="M17.6,11c-0.4,0-0.7,0.3-0.7,0.7v5.9c0,0.4,0.3,0.7,0.7,0.7s0.7-0.3,0.7-0.7v-5.9
					C18.3,11.3,18,11,17.6,11z"/>
				<path id="Shape_1_" class="st0" d="M22,0C9.8,0,0,9.8,0,22s9.8,22,22,22s22-9.8,22-22C44,9.9,34.1,0,22,0z M22,42.5
					C10.7,42.5,1.5,33.3,1.5,22S10.7,1.5,22,1.5S42.5,10.7,42.5,22C42.5,33.3,33.3,42.5,22,42.5z"/>
				<path id="Path_3_" class="st0" d="M24.4,35.8c0-0.4-0.4-0.7-0.8-0.7c0,0,0,0,0,0l0,0c-1,0.1-2.1,0.1-3.1,0
					c-0.4,0-0.8,0.2-0.8,0.6s0.2,0.8,0.6,0.8c1.1,0.1,2.3,0.1,3.4,0C24.1,36.5,24.4,36.2,24.4,35.8z"/>
				<path id="Path_4_" class="st0" d="M33.2,12.6c-0.3-0.3-0.7-0.4-1-0.1c0,0,0,0,0,0c-0.3,0.3-0.3,0.7-0.1,1
					c4.4,5.2,4.1,13-0.8,17.9c-0.3,0.3-0.3,0.8,0,1c0.3,0.3,0.8,0.3,1,0C37.8,27,38.1,18.4,33.2,12.6z"/>
				<g id="Group" transform="translate(16.316667, 7.333333)">
					<path id="Path_5_" class="st0" d="M0.8,2.4C0.8,2.4,0.8,2.4,0.8,2.4C0.8,2.4,0.8,2.4,0.8,2.4L0.8,2.4z"/>
					<path id="Path_6_" class="st0" d="M9.1,0.4C6.3-0.3,3.3-0.1,0.5,0.9C0.1,1.1-0.1,1.5,0.1,1.9c0.1,0.3,0.4,0.5,0.7,0.5
						c0.1,0,0.2,0,0.3,0c2.5-0.9,5.2-1.1,7.8-0.5c0.4,0.1,0.8-0.1,0.9-0.5C9.8,0.9,9.5,0.5,9.1,0.4z"/>
				</g>
				<path id="Path_7_" class="st0" d="M12.6,31.3c-2.5-2.5-3.9-5.8-3.8-9.3c0-2.8,0.9-5.5,2.5-7.8c0.2-0.3,0.2-0.8-0.1-1
					c-0.3-0.2-0.8-0.2-1,0.1c0,0,0,0,0,0c-4.2,5.8-3.6,13.9,1.5,19c0.3,0.3,0.8,0.3,1,0C12.9,32.1,12.9,31.6,12.6,31.3z"/>
			</g>
		</g>
	</g>
</g>
</svg>
